X: 31824
T: Patterson's Air
R: waltz
M: 3/4
K: Gmajor
D2|"G"G3F AG|B4 Bc|"D"A3 G AB|"G"G4D2|
"G"G3 F AG|B4 BB|"D"A3 A B^c|d4d2|
"C"e3 d cB|"Am"c4 c2|"D7"d3 c BA|"G"B4 c2|
"D"d3 c BA|"C"GF E4|"D7"A3B cB|"G"G4z2||

